!!!COM: Scriabin, Alexander
!!!OTL@@FR: Prélude en la mineur
!!!OTL@@EN: Prelude in A Minor
!!!OPR@@FR: 24 Préludes
!!!OPR@@EN: 24 Preludes
!!!OPS: 11
!!!ONM: 2
!!!ODT: 1895
!!!AGN: Prelude
**kern	**kern	**dynam
*staff2	*staff1	*staff1/2
*Ipiano	*Ipiano	*
*clefF4	*clefG2	*
*k[]	*k[]	*
*a:	*a:	*
*M3/4	*M3/4	*
=1	=1	=1
*clefG2	*	*
*^	*	*
4B	[2.a	4r	p
4c	.	8r	<
.	.	8ee	(
4d	.	8ffL	(
.	.	8cccJ	[
=2	=2	=2	=2
4d#X	4a]	4.bb	>
*v	*v	*	*
*clefF4	*	*
4F	.	)
.	8aa	)
4BB	4a	]
=3	=3	=3
*^	*	*
4EE	4ryy	8r	.
.	.	8dd	.
*clefG2	*clefG2	*	*
4B	2a	8ggL	.
.	.	8ffJ	.
4d	.	4b	.
=4	=4	=4	=4
2d	4a	8r	.
.	.	8b	.
.	4g#X	8ffL	.
.	.	8eeJ	.
4c	4e	4a	.
*clefF4	*	*	*
=5	=5	=5	=5
4F#X	[2.e	4r	.
4G	.	8r	.
.	.	8b	<
4A	.	8ccL	(
.	.	8ggJ	[
=6	=6	=6	=6
4A#X	4e]	4.ff#X	>
*v	*v	*	*
4C	.	)
.	8ee	)
4FF#X	4e	]
!!LO:LB:g=original
=7	=7	=7
4BBB 4BB	8r	.
.	8a	.
*^	*	*
4F#X	2e	8ddL	.
.	.	8ccJ	.
4A	.	4f#X	.
=8	=8	=8	=8
2A	4d#X	8r	.
.	.	8fn	.
.	2dn	8ccL	.
.	.	8bJ	.
4G#X	.	8eL	.
.	.	8b-XJ	.
=9	=9	=9	=9
4Gn	2.c#X 2.e	4r	.
4A	.	8r	.
.	.	8e	.
4G	.	8aL	<
.	.	8cc#XJ	.
*v	*v	*	*
=10	=10	=10
4F	2.d 2.b-X 2.dd	.
4B-X 4f	.	.
4F	.	.
*^	*	*
=11	=11	=11	=11
4E	2.B-X 2.g	4r	.
4F	.	8r	.
.	.	8g	.
4E	.	8b-XL	.
.	.	8ddJ	.
*v	*v	*	*
=12	=12	=12
4D	2.f 2.b-X 2.ff	.
4B-X 4f	.	.
4D	.	.
!!LO:LB:g=original
=13	=13	=13
4C	4r	.
*	*^	*
4F 4c 4f	[2a	4ff	.
4C	.	4ee	.
=14	=14	=14	=14
4BB	4a]	4dd#X	.
4F#X 4d#X 4a	4dd#	4ccc	.
4r	4r	4bb	.
*	*v	*v	*
=15	=15	=15
4Fn	4.ddn	.
*^	*	*
4B	2a	.	.
.	.	8dd	>
4d	.	8eeL	.
.	.	8ffJ	.
*v	*v	*	*
=16	=16	=16
*^	*	*
4E	4ryy	8ccL	.
.	.	8a#XJ	.
*clefG2	*clefG2	*	*
2d	4an	8b	.
.	.	4ff	.
.	4g#X	.	.
.	.	8ee	.
=17	=17	=17	=17
4B	[2.a	4r	.
4c	.	8r	.
.	.	8ee	<
4d	.	8ffL	(
.	.	8cccJ	[
=18	=18	=18	=18
4d#X	4a]	4.bb	>
*v	*v	*	*
*clefF4	*	*
4F	.	)
.	8aa	)
4BB	4a	]
!!LO:LB:g=original
=19	=19	=19
*^	*	*
4EE	4ryy	8r	.
.	.	8dd	.
*clefG2	*clefG2	*	*
4B	2a	8ggL	.
.	.	8ffJ	.
4c	.	4cc	.
=20	=20	=20	=20
2.d	2a	8r	.
.	.	8cc	.
.	.	8ffL	.
.	.	8eeJ	.
.	[4g#X	4b	.
=21	=21	=21	=21
4d#X	4g#]	4r	.
4B	[2g#X	8r	.
.	.	8dd#X	pp
4c#X	.	8eeL	<
.	.	8bbJ	[
=22	=22	=22	=22
4c##X	4g#]	4.aa#X	>
*v	*v	*	*
*clefF4	*	*
4E	.	)
.	8gg#X	]
4AA#X	4g#X	.
=23	=23	=23
*^	*	*
4DD#X	4D#X	8r	.
.	.	8cc#X	.
*clefG2	*clefG2	*	*
4A#X	2g#X	8ff#XL	.
.	.	8eeJ	.
4B	.	4b	.
=24	=24	=24	=24
2.c#X	2g#X	8r	.
.	.	8b	.
.	.	8eeL	.
.	.	8dd#XJ	.
.	4f##X	4a#X	.
*clefF4	*	*	*
!!LO:LB:g=original
=25	=25	=25	=25
4C#X	2.F##X 2.d#X	4r	.
4D#X	.	8r	.
.	.	8a#X	<
4C#	.	8dd#XL	.
.	.	8ff##XJ	.
*v	*v	*	*
=26	=26	=26
4Cn	2.a#X 2.ee 2.aa#X	.
4G 4e	.	.
4C	.	.
=27	=27	=27
*^	*	*
4BB	2.G 2.e	4r	.
4C	.	8r	.
.	.	8g	.
4BB	.	8bL	.
.	.	8eeJ	.
*v	*v	*	*
=28	=28	=28
4AA	2.g 2.cc 2.gg	.
4E 4c	.	.
4AA	.	.
=29	=29	=29
4GG	4r	.
*	*^	*
4C 4G 4c	[2e	4cc	mf
4GG	.	4b	.
=30	=30	=30	=30
4FF#X	4e]	4a#X	.
4C#X 4A#X 4e	4a#	4gg	.
4r	4r	4ff#X	.
*	*v	*v	*
=31	=31	=31
4C	4.an	>
*^	*	*
4F#X	2e	.	.
.	.	8a	.
4A	.	8bL	.
.	.	8ccJ	.
*v	*v	*	*
!!LO:LB:g=original
=32	=32	=32
4BB 4A 4d#X	8bL	.
.	8gJ	.
4G 4B	8f#XL	.
.	8d#XJ	.
4r	8f#L	.
.	8eJ	.
=33	=33	=33
*^	*	*
4E	[2.B	8r	.
.	.	8f#XL	.
4D	.	8a	<
.	.	8g	(
[4C#X	.	8b	(
.	.	8eeJ	[
=34	=34	=34	=34
2.C#] 2.B]	4g	8ccc#XL	>
.	.	8bbJ	)
.	4e	8r	]
.	.	8ff#X	<
.	4r	8aaL	(
.	.	8ggJ	[
=35	=35	=35	=35
*	*	*^	*
4E	4r	2.g	2ff#X	>
4D	8r	.	.	)
.	8G	.	.	)
[4C#X	8A#XL	.	4ee	)
.	[8BJ	.	.	]
=36	=36	=36	=36	=36
2.C#] 2.B]	4.g	2.b	4dd#X	.
.	.	.	4ee	.
.	8f#X	.	.	.
.	8f#L	.	4gg	.
.	8eJ	.	.	.
*	*	*v	*v	*
=37	=37	=37	=37
*^	*	*	*
2.D\	2B	4d	8ff#XL	.
.	.	.	8aa	.
.	.	[2g	8gg	.
.	.	.	8ddJ	.
.	4B-X	.	[4dd#X	.
!!LO:LB:g=original
=38	=38	=38	=38	=38
2.D\	4A	4g]	8dd#L]	.
.	.	.	8ff#X	.
.	2c	4g	8ee	.
.	.	.	8aJ	.
.	.	4f#X	[4b	.
*	*v	*v	*	*
*v	*v	*	*
=39	=39	=39
4GG	8bL]	.
.	8dd	.
4D 4B 4d	8f#X	>
.	8g	)
4r	8a	)
.	8bJ	)
=40	=40	=40
2.r	8cc#XL	)
.	8dd	)
.	8ee	)
.	8dd	)
.	8ff#X	)
.	8ggJ	]
=41	=41	=41
*^	*	*
4G	[2.d	8r	.
.	.	8aL	.
4F	.	8cc	<
.	.	8b-X	(
[4E	.	8dd	(
.	.	8ggJ	[
=42	=42	=42	=42
2.E] 2.d]	4b-X	8eeeL	.
.	.	8ddd	>
.	2g	8bb-X	)
.	.	8aa	]
.	.	8ccc	<
.	.	8bb-J	[
=43	=43	=43	=43
*	*	*^	*
4G	4r	2.b-X	2aa	.
4F	8r	.	.	.
.	8B-X	.	.	<
4E	8c#XL	.	4gg	(
.	8dJ	.	.	[
*v	*v	*	*	*
*clefG2	*	*	*
!!LO:LB:g=original
=44	=44	=44	=44
8b-XL	2.dd	4ff#X	mf
8a	.	.	.
8cc	.	4.gg	.
8b-	.	.	.
8a	.	.	.
8gJ	.	8bb-X	.
*	*v	*v	*
=45	=45	=45
*^	*	*
*	*^	*	*
2.F\	2d	4f	8aaL	.
.	.	.	8ccc	.
.	.	[2b-X	8bb-X	.
.	.	.	8ff	.
.	4d-X	.	8ff#X	<
.	.	.	8ggJ	[
=46	=46	=46	=46	=46
2.F\	4c	4b-]	8aaL	>
.	.	.	8gg	)
.	2e-X	4b-X	8cc	]
.	.	.	8dd	.
.	.	4a	8ff	.
.	.	.	8ddJ	.
*	*v	*v	*	*
*v	*v	*	*
*clefF4	*	*
=47	=47	=47
*^	*	*
2BB-X	4r	8aL	.
.	.	8b-X	.
.	4F 4d 4f	8cc	.
.	.	8b-	>
*v	*v	*	*
4r	8dd	)
.	8aJ	)
=48	=48	=48
4E	8ffL	)
.	8g#X	)
4d 4g#X	8bbn	)
.	8dd#X	)
4r	8ff	)
.	8eeJ	]
*clefG2	*	*
=49	=49	=49
*^	*	*
4B	[2.a	4r	p
4c	.	8r	.
.	.	8ee	<
4d	.	8ffL	(
.	.	8cccJ	[
!!LO:LB:g=original
=50	=50	=50	=50
4d#X	4a]	4.bb	>
*v	*v	*	*
*clefF4	*	*
4F	.	)
.	8aa	)
4BB	4a	]
=51	=51	=51
*^	*	*
4EE	4ryy	8r	.
.	.	8dd	.
*clefG2	*clefG2	*	*
4B	2a	8ggL	.
.	.	8ffJ	.
4d	.	4b	.
=52	=52	=52	=52
2d	4g#X	8r	.
.	.	8b-X	.
.	2gn	8ffL	.
.	.	8eeJ	.
4c#X	.	4a	.
*clefF4	*	*	*
=53	=53	=53	=53
4E	[2.d	4r	.
4F	.	8r	.
.	.	8a	<
4G	.	8b-XL	(
.	.	8ffJ	[
=54	=54	=54	=54
4G#X	4d]	4.ee	.
*v	*v	*	*
4BB-X	.	.
.	8dd	>
4EE	4d	]
=55	=55	=55
4AAA 4AA	8r	.
.	8g	.
*^	*	*
4E	2d	8ccL	.
.	.	8b-XJ	.
4G	.	4e	.
!!LO:LB:g=original
=56	=56	=56	=56
2G	4c#X	8r	.
.	.	8e-X	.
.	2cn	8b-XL	.
.	.	8aJ	.
4F#X	.	8dL	.
.	.	8a-XJ	.
=57	=57	=57	=57
4Fn	2.B 2.d	4r	.
4G	.	8r	.
.	.	8d	<
4F	.	8gL	(
.	.	8bJ	(
*v	*v	*	*
=58	=58	=58
4E	2.d 2.g#X 2.dd	[
4B 4e	.	.
4E	.	.
=59	=59	=59
*^	*	*
4D	2.G#X 2.B	4r	.
4E	.	8r	.
.	.	8g#X	<
4D	.	8bL	(
.	.	8eeJ	[
*v	*v	*	*
=60	=60	=60
4D-X	2.g#X 2.ff	.
4F 4B 4f	.	.
4D-	.	.
=61	=61	=61
4C	4r	.
*	*^	*
4F 4c 4f	[2a	4ff	.
4C	.	4ee	.
!!LO:LB:g=original
=62	=62	=62	=62
4BB	4a]	4dd#X	.
4F#X 4d#X 4a	2dd#	4ccc	.
4r	.	4bb	.
*	*v	*v	*
=63	=63	=63
4Fn	4.ddn	.
4B 4a	.	.
.	8dd	.
4r	8eeL	.
.	8cc#XJ	.
=64	=64	=64
4r	8.ddL	.
.	16bbJk	.
4r	4bb	.
4F 4B	[4a [4dd#X	.
=65	=65	=65
*	*^	*
4.E 4.c	2a]	4dd#]	.
.	.	8ee	.
8E	.	8r	.
*	*v	*v	*
8FL	4d 4gn	.
8cJ	.	.
=66	=66	=66
4.B	4d 4g#X	.
.	4d 4a	.
8A	.	.
4BB	4d 4a 4ff	.
=67	=67	=67
4EE	8r	.
.	[8a	.
*^	*^	*
4E 4d#X	4c	4a]	8ggL	.
.	.	.	8ffJ	.
*	*	*v	*v	*
4E 4dn	8cL	[4g#X	.
.	8BJ	.	.
*v	*v	*	*
=68	=68	=68
4AAA	8g#L]	pp
.	8aJ	.
2AA 2E 2A	2c 2e 2cc	.
==	==	==
*-	*-	*-
!!!system-decoration: {(*)}
!!!filter: flipper -a
!!!RDF**dynam: > = dim.
!!!ENC: Bryan Jacob Bell
!!!END: November 2021 to April 2022
!!!PED: Günter Philipp
!!!PTL: Ausgewählte Klavierwerke (Edition Peters)
!!!URL-pdf: https://github.com/bel28kent/Mysterium/blob/main/reference_editions/op11.pdf
